X: 12187
T: Eyre Square Buzz
R: reel
M: 4/4
K: Amajor
|:"A"ecdB cABG|"E"E2 DE B,CDF|"A"EAcA "Bm"dBcd|"E"edBA GE E2|
"A"cAdB ecdf|"E"edBA GBED|"A"C2 B,C "Bm7"DEFA|"E"GEDB, "A"A,4:|
|:"A"AGAc "Bm"BcdB|"E"e2 BA GB E2|"A"cAdB "D"ecfd|"E"EBGB "A"A4|
"A"EAce "E7"dBGB|"A"ABce "E"dBef|"A"e2 dB "E"cAdB|"E"EBGB "A"A4:|

